assets/icons/fire.svg

<svg width="24" height="25" viewBox="0 0 24 25" fill="none" xmlns="http://www.w3.org/2000/svg">
<path d="M10.9781 4.73417C10.9055 4.68981 10.8227 4.66638 10.7382 4.66638C10.6538 4.66638 10.5709 4.68981 10.4984 4.73417C10.4386 4.78271 10.3982 4.85203 10.385 4.929C10.3717 5.00597 10.3865 5.08524 10.4264 5.15183C11.4955 7.04818 11.9535 9.44133 11.3576 11.3633C10.9719 12.6073 9.40719 12.6788 8.75884 11.5553C8.62579 11.3247 8.50584 11.0856 8.39984 10.8392C7.65484 11.2631 7.03739 11.8879 6.61459 12.6459C6.19179 13.4038 5.97974 14.2659 6.00149 15.1386C6.12784 18.334 8.13604 20.6664 11.9973 20.6664C15.8587 20.6664 17.8613 18.2096 17.9932 15.1386C18.1491 11.4534 15.5949 6.92068 10.9781 4.73417Z" fill="white"/>
<path d="M10.8691 3.24255C11.1373 3.26121 11.3967 3.3378 11.6318 3.46423C16.6848 5.87768 19.6028 10.8925 19.4209 15.1986V15.1996C19.3425 17.0252 18.7005 18.7697 17.4033 20.0648C16.0944 21.3714 14.2436 22.0951 11.997 22.0951C9.77185 22.095 7.91711 21.4162 6.59763 20.1205C5.3673 18.9123 4.7308 17.2934 4.5947 15.5463L4.5742 15.1947C4.57393 15.1879 4.57339 15.181 4.57322 15.1742C4.54514 14.0475 4.81906 12.9322 5.36717 11.9496C5.91541 10.9669 6.71879 10.1526 7.69334 9.59802L7.82908 9.52966C8.15176 9.38901 8.51737 9.37168 8.85447 9.48474C9.23968 9.61403 9.55131 9.90152 9.71189 10.2748C9.79581 10.4698 9.8909 10.6589 9.99607 10.8412L10.0136 10.8646C10.4284 9.42477 10.0997 7.48143 9.18162 5.85291V5.85193C8.98002 5.4978 8.90889 5.0858 8.97752 4.68689L9.01072 4.53357C9.10445 4.18109 9.30705 3.8614 9.59763 3.62537L9.75291 3.51599L9.86521 3.45154C10.1332 3.31176 10.4325 3.23767 10.7383 3.23767L10.8691 3.24255ZM12.8525 7.62146C13.1349 9.01307 13.1333 10.4617 12.7226 11.7865H12.7217C12.3492 12.9874 11.3455 13.7033 10.247 13.7728C9.46374 13.8224 8.68462 13.5421 8.0908 12.9867C8.00781 13.0994 7.93139 13.2183 7.86228 13.3422C7.56551 13.8743 7.41499 14.4819 7.42967 15.099C7.48465 16.4054 7.91399 17.4081 8.59959 18.0814C9.28102 18.7506 10.3613 19.2376 11.997 19.2377C13.6118 19.2377 14.694 18.7329 15.3847 18.0433C16.0869 17.3424 16.5129 16.3228 16.5664 15.0775C16.6663 12.7081 15.3774 9.74779 12.8525 7.62146Z" fill="white"/>
</svg>

<svg xmlns="http://www.w3.org/2000/svg" width="24" height="25" fill="none" viewBox="0 0 24 25"><path fill="#fff" d="M10.978 4.734a.46.46 0 0 0-.48 0 .326.326 0 0 0-.072.418c1.07 1.896 1.527 4.29.932 6.211-.386 1.244-1.95 1.316-2.6.192a7 7 0 0 1-.358-.716 4.7 4.7 0 0 0-1.785 1.807A4.87 4.87 0 0 0 6 15.139c.127 3.195 2.135 5.527 5.996 5.527s5.864-2.456 5.996-5.527c.156-3.686-2.398-8.218-7.015-10.405"/><path fill="#fff" d="M10.87 3.243c.267.018.527.095.762.221 5.053 2.414 7.97 7.429 7.789 11.735-.078 1.826-.72 3.57-2.018 4.866-1.309 1.306-3.16 2.03-5.406 2.03-2.225 0-4.08-.679-5.4-1.974-1.23-1.209-1.866-2.828-2.002-4.575l-.02-.351-.002-.02a6.3 6.3 0 0 1 .794-3.225 6.15 6.15 0 0 1 2.326-2.352l.136-.068a1.43 1.43 0 0 1 1.883.745q.126.293.284.566l.018.024c.414-1.44.086-3.384-.832-5.012v-.001a1.75 1.75 0 0 1-.204-1.165l.033-.153c.093-.353.296-.673.587-.909l.155-.109.112-.064c.268-.14.567-.214.873-.214zm1.983 4.378c.282 1.392.28 2.84-.13 4.166h-.001c-.373 1.2-1.376 1.916-2.475 1.986a2.9 2.9 0 0 1-2.156-.786 3.44 3.44 0 0 0-.661 2.112c.055 1.306.484 2.31 1.17 2.982.681.67 1.761 1.157 3.397 1.157 1.615 0 2.697-.505 3.388-1.195.702-.7 1.128-1.72 1.181-2.965.1-2.37-1.189-5.33-3.713-7.457"/></svg>
